X:1
T:Charente, 88.88.88
T:Charente, 88.88.88
T:Edward Payson Clisbee, 1873
T:Public Domain Courtesy of the Cyber Hymnal™
C:Edward Payson Clisbee, 1873
Z:Public Domain
Z:Courtesy of the Cyber Hymnal™
%%score ( 1 2 ) 3
L:1/8
Q:1/4=110
M:3/4
K:F
V:1 treble 
V:2 treble 
V:3 bass 
V:1
 [FA]2 | [Ac]4 [FA]F | [EG]3 [DF] [EG]2 | [FA]4 [FA]2 | [Ac]4 [FA]F | [EG]3 F [EG]2 | F4 [FA]2 | %7
 [EG]3 [^D^F] [EG]2 | [Ec]3 [EG] [GB]2 | [FA]4 [FA]2 | [EG]3 [Ec] [Fd]2 | [Ge]3 [Ec] [Fd]2 | %12
 [Ec]2 [GB]2 [FA]2 | [Ac]4 [FA]F | [EG]3 [DF] [EG]2 | [FA]4 [FA]2 | [Ac]4 [FA]F | [EG]3 F [EG]2 | %18
 F4 |] %19
V:2
 x2 | x5 F | x6 | x6 | x5 F | x3 F x2 | F4 x2 | x6 | x6 | x6 | x6 | x6 | x6 | x5 F | x6 | x6 | %16
 x5 F | x3 F x2 | F4 |] %19
V:3
 [F,C]2 | [F,C]4 [F,C][F,A,] | [C,C]3 [C,C] [C,C]2 | [F,C]4 [F,C]2 | [F,F]4 [F,C][F,A,] | %5
 [C,B,]3 [C,A,] [C,B,]2 | [F,A,]4 [F,C]2 | [C,C]3 [C,C] [C,C]2 | [C,G,]3 [C,C] [C,C]2 | %9
 [F,C]4 [F,C]2 | [G,C]3 [G,C] [G,C]2 | [G,C]3 [G,C] [G,=B,]2 | !fermata![C,C]4 [F,C]2 | %13
 [F,C]4 [F,C][F,A,] | [C,C]3 [C,C] [C,C]2 | [F,C]4 [F,C]2 | [F,F]4 [F,C][F,A,] | %17
 [C,B,]3 [C,A,] [C,B,]2 | [F,A,]4 |] %19

